X:52
T:The Paper Plate Slide
B:Terry "Cuz" Teahan "Sliabh Luachra on Parade" 1980
Z:Patrick Cavanagh
M:12/8
L:1/8
R:Slide
K:D
| A3 ABA B2A G2B | AGE G2E D2E G2E | 
A3 AGA B2A G2B | AGE G2E D3 D3 :| 
| d2A AGA B2A G2B | AGE G2E D2E G2E | 
d2A AGA B2A G2B | AGE G2E D3 D3 :|| 

